Newaita-dark/actions/22/code-typedef.svg

<svg height="22" viewBox="0 0 22 22" width="22" xmlns="http://www.w3.org/2000/svg"><g fill="#e0e0e0"><path d="m5.003906 1.992188c-1.765625 0-3.183594 1.417968-3.183594 3.183593 0 1.761719 1.417969 3.183594 3.183594 3.183594 1.761719 0 3.183594-1.421875 3.183594-3.183594 0-1.765625-1.421875-3.183593-3.183594-3.183593zm0 .910156c1.257813 0 2.273438 1.011718 2.273438 2.273437 0 1.257813-1.015625 2.273438-2.273438 2.273438-1.261718 0-2.273437-1.015625-2.273437-2.273438 0-1.261719 1.011719-2.273437 2.273437-2.273437zm0 0"/><path d="m4.09375 8.359375h1.820312c.25 0 .453126.101563.453126.226563v.453124c0 .125-.203126.230469-.453126.230469h-1.820312c-.25 0-.457031-.105469-.457031-.230469v-.453124c0-.125.207031-.226563.457031-.226563zm0 0"/><path d="m4.09375 8.359375c.25 0 .453125.203125.453125.453125v10.007812c0 .25-.203125.453126-.453125.453126s-.457031-.203126-.457031-.453126v-10.007812c0-.25.207031-.453125.457031-.453125zm0 0"/><path d="m6.367188 17.453125h12.734374c.503907 0 .910157.40625.910157.910156v.910157c0 .503906-.40625.910156-.910157.910156h-12.734374c-.503907 0-.910157-.40625-.910157-.910156v-.910157c0-.503906.40625-.910156.910157-.910156zm0 0"/><path d="m4.09375 18.363281h1.820312c.25 0 .453126.203125.453126.457031 0 .25-.203126.453126-.453126.453126h-1.820312c-.25 0-.457031-.203126-.457031-.453126 0-.253906.207031-.457031.457031-.457031zm0 0"/><path d="m6.820312 6.085938c-.753906 0-1.363281.605468-1.363281 1.363281v5.457031c0 .753906.609375 1.363281 1.363281 1.363281h11.828126c.753906 0 1.363281-.609375 1.363281-1.363281v-5.457031c0-.757813-.609375-1.363281-1.363281-1.363281zm.910157 1.816406h10.007812c.25 0 .453125.203125.453125.457031v3.636719c0 .253906-.203125.457031-.453125.457031h-10.007812c-.25 0-.453125-.203125-.453125-.457031v-3.636719c0-.253906.203125-.457031.453125-.457031zm0 0"/></g></svg>

<?xml version="1.0" encoding="UTF-8"?>
<svg xmlns="http://www.w3.org/2000/svg" xmlns:xlink="http://www.w3.org/1999/xlink" width="22px" height="22px" viewBox="0 0 22 22" version="1.1">
<g id="surface1">
<path style=" stroke:none;fill-rule:nonzero;fill:rgb(87.843138%,87.843138%,87.843138%);fill-opacity:1;" d="M 5.003906 1.992188 C 3.238281 1.992188 1.820312 3.410156 1.820312 5.175781 C 1.820312 6.9375 3.238281 8.359375 5.003906 8.359375 C 6.765625 8.359375 8.1875 6.9375 8.1875 5.175781 C 8.1875 3.410156 6.765625 1.992188 5.003906 1.992188 Z M 5.003906 2.902344 C 6.261719 2.902344 7.277344 3.914062 7.277344 5.175781 C 7.277344 6.433594 6.261719 7.449219 5.003906 7.449219 C 3.742188 7.449219 2.730469 6.433594 2.730469 5.175781 C 2.730469 3.914062 3.742188 2.902344 5.003906 2.902344 Z M 5.003906 2.902344 "/>
<path style=" stroke:none;fill-rule:nonzero;fill:rgb(87.843138%,87.843138%,87.843138%);fill-opacity:1;" d="M 4.09375 8.359375 L 5.914062 8.359375 C 6.164062 8.359375 6.367188 8.460938 6.367188 8.585938 L 6.367188 9.039062 C 6.367188 9.164062 6.164062 9.269531 5.914062 9.269531 L 4.09375 9.269531 C 3.84375 9.269531 3.636719 9.164062 3.636719 9.039062 L 3.636719 8.585938 C 3.636719 8.460938 3.84375 8.359375 4.09375 8.359375 Z M 4.09375 8.359375 "/>
<path style=" stroke:none;fill-rule:nonzero;fill:rgb(87.843138%,87.843138%,87.843138%);fill-opacity:1;" d="M 4.09375 8.359375 C 4.34375 8.359375 4.546875 8.5625 4.546875 8.8125 L 4.546875 18.820312 C 4.546875 19.070312 4.34375 19.273438 4.09375 19.273438 C 3.84375 19.273438 3.636719 19.070312 3.636719 18.820312 L 3.636719 8.8125 C 3.636719 8.5625 3.84375 8.359375 4.09375 8.359375 Z M 4.09375 8.359375 "/>
<path style=" stroke:none;fill-rule:nonzero;fill:rgb(87.843138%,87.843138%,87.843138%);fill-opacity:1;" d="M 6.367188 17.453125 L 19.101562 17.453125 C 19.605469 17.453125 20.011719 17.859375 20.011719 18.363281 L 20.011719 19.273438 C 20.011719 19.777344 19.605469 20.183594 19.101562 20.183594 L 6.367188 20.183594 C 5.863281 20.183594 5.457031 19.777344 5.457031 19.273438 L 5.457031 18.363281 C 5.457031 17.859375 5.863281 17.453125 6.367188 17.453125 Z M 6.367188 17.453125 "/>
<path style=" stroke:none;fill-rule:nonzero;fill:rgb(87.843138%,87.843138%,87.843138%);fill-opacity:1;" d="M 4.09375 18.363281 L 5.914062 18.363281 C 6.164062 18.363281 6.367188 18.566406 6.367188 18.820312 C 6.367188 19.070312 6.164062 19.273438 5.914062 19.273438 L 4.09375 19.273438 C 3.84375 19.273438 3.636719 19.070312 3.636719 18.820312 C 3.636719 18.566406 3.84375 18.363281 4.09375 18.363281 Z M 4.09375 18.363281 "/>
<path style=" stroke:none;fill-rule:nonzero;fill:rgb(87.843138%,87.843138%,87.843138%);fill-opacity:1;" d="M 6.820312 6.085938 C 6.066406 6.085938 5.457031 6.691406 5.457031 7.449219 L 5.457031 12.90625 C 5.457031 13.660156 6.066406 14.269531 6.820312 14.269531 L 18.648438 14.269531 C 19.402344 14.269531 20.011719 13.660156 20.011719 12.90625 L 20.011719 7.449219 C 20.011719 6.691406 19.402344 6.085938 18.648438 6.085938 Z M 7.730469 7.902344 L 17.738281 7.902344 C 17.988281 7.902344 18.191406 8.105469 18.191406 8.359375 L 18.191406 11.996094 C 18.191406 12.25 17.988281 12.453125 17.738281 12.453125 L 7.730469 12.453125 C 7.480469 12.453125 7.277344 12.25 7.277344 11.996094 L 7.277344 8.359375 C 7.277344 8.105469 7.480469 7.902344 7.730469 7.902344 Z M 7.730469 7.902344 "/>
</g>
</svg>
